raw/hero/review-error.svg

<svg width="220" height="160" viewBox="0 0 220 160" fill="none" xmlns="http://www.w3.org/2000/svg">
<rect x="63" y="34" width="94" height="110" rx="12" fill="url(#paint0_linear_6126_222840)"/>
<mask id="mask0_6126_222840" style="mask-type:alpha" maskUnits="userSpaceOnUse" x="63" y="34" width="94" height="110">
<rect x="63" y="34" width="94" height="110" rx="12" fill="url(#paint1_linear_6126_222840)"/>
</mask>
<g mask="url(#mask0_6126_222840)">
<rect x="72.4583" y="41.4583" width="75.0833" height="94.0833" fill="url(#paint2_linear_6126_222840)" stroke="white" stroke-width="0.916667"/>
<path opacity="0.8" d="M154 155C137.431 155 124 141.569 124 125C124 108.431 137.431 95 154 95C170.569 95 184 108.431 184 125C184 141.569 170.569 155 154 155Z" fill="url(#paint3_linear_6126_222840)"/>
<path d="M156.667 110.525V123.046C156.667 123.336 156.902 123.571 157.192 123.571H167.475C167.765 123.571 168 123.806 168 124.096V128.475C168 128.765 167.765 129 167.475 129H151.525C151.235 129 151 128.765 151 128.475V110.525C151 110.235 151.235 110 151.525 110H156.142C156.432 110 156.667 110.235 156.667 110.525Z" fill="url(#paint4_linear_6126_222840)"/>
</g>
<path d="M77.33 66.2802L78.899 54.5006C78.9163 54.3708 79.0888 54.3376 79.153 54.4517L85.4237 65.5899C85.4872 65.7028 85.6577 65.6718 85.6773 65.5437L87.3804 54.4175" stroke="#BBC1D5" stroke-width="2.72727"/>
<path d="M100.06 62.401C99.7776 65.1778 97.3669 67.1482 94.7393 66.8805C92.1118 66.6128 90.148 64.1968 90.4309 61.42C90.7137 58.6432 93.1244 56.6728 95.752 56.9405C98.3795 57.2081 100.343 59.6241 100.06 62.401Z" stroke="#BBC1D5" stroke-width="2.72727"/>
<rect opacity="0.7" x="82" y="82" width="12" height="12" rx="3" stroke="#BBC1D5" stroke-width="3"/>
<rect opacity="0.5" x="82" y="107" width="12" height="12" rx="3" stroke="#BBC1D5" stroke-width="3"/>
<rect x="104" y="57" width="32" height="4" rx="0.5" fill="url(#paint5_linear_6126_222840)"/>
<rect opacity="0.7" x="100" y="82" width="36" height="4" rx="0.5" fill="url(#paint6_linear_6126_222840)"/>
<rect opacity="0.5" x="100" y="107" width="36" height="4" rx="0.5" fill="url(#paint7_linear_6126_222840)"/>
<rect x="104" y="65" width="18" height="4" rx="0.5" fill="url(#paint8_linear_6126_222840)"/>
<rect opacity="0.7" x="100" y="90" width="21" height="4" rx="0.5" fill="url(#paint9_linear_6126_222840)"/>
<rect opacity="0.5" x="100" y="115" width="21" height="4" rx="0.5" fill="url(#paint10_linear_6126_222840)"/>
<path d="M154 148C141.297 148 131 137.703 131 125C131 112.297 141.297 102 154 102C166.703 102 177 112.297 177 125C177 137.703 166.703 148 154 148Z" fill="#CC1800"/>
<path fill-rule="evenodd" clip-rule="evenodd" d="M159.728 116.235C159.923 116.039 160.239 116.039 160.435 116.235L162.839 118.639C163.034 118.834 163.034 119.151 162.839 119.346L157.677 124.508C157.482 124.703 157.482 125.019 157.677 125.215L162.98 130.518C163.176 130.713 163.176 131.03 162.98 131.225L160.576 133.629C160.381 133.825 160.064 133.825 159.869 133.629L154.566 128.326C154.37 128.131 154.054 128.131 153.859 128.326L148.343 133.841C148.148 134.037 147.831 134.037 147.636 133.841L145.232 131.437C145.037 131.242 145.037 130.925 145.232 130.73L150.747 125.215C150.943 125.019 150.943 124.703 150.747 124.508L145.373 119.134C145.178 118.938 145.178 118.622 145.373 118.427L147.777 116.022C147.973 115.827 148.289 115.827 148.485 116.022L153.859 121.396C154.054 121.592 154.37 121.592 154.566 121.396L159.728 116.235Z" fill="url(#paint11_linear_6126_222840)"/>
<path d="M115.724 34.95H104.276C105.953 34.0602 107.32 32.6142 108.1 30.7956C108.816 29.1248 111.184 29.1248 111.9 30.7956C112.68 32.6142 114.047 34.0602 115.724 34.95Z" stroke="url(#paint12_linear_6126_222840)" stroke-width="12.1"/>
<mask id="mask1_6126_222840" style="mask-type:alpha" maskUnits="userSpaceOnUse" x="91" y="23" width="38" height="18">
<path d="M115.724 34.95H104.276C105.953 34.0602 107.32 32.6142 108.1 30.7956C108.816 29.1248 111.184 29.1248 111.9 30.7956C112.68 32.6142 114.047 34.0602 115.724 34.95Z" stroke="url(#paint13_linear_6126_222840)" stroke-width="12.1"/>
</mask>
<g mask="url(#mask1_6126_222840)">
<rect opacity="0.4" x="75.5625" y="32.4814" width="62.6875" height="12.8889" fill="url(#paint14_linear_6126_222840)"/>
</g>
<circle cx="110.001" cy="28.2" r="2.2" fill="#757B94"/>
<path d="M161.375 21.25C161.792 22.9167 162.125 26.625 160.125 28.125C158.125 29.625 155.542 29.1667 154.5 28.75" stroke="#D3D9E6" stroke-width="1.8"/>
<path d="M167.081 25C166.456 25 164.029 27.2404 164.581 30C165.133 32.7596 168.331 33.75 170.206 34.375" stroke="#D3D9E6" stroke-width="1.8"/>
<path d="M154.5 34.3405C155.958 33.2988 159.25 31.5905 160.75 33.0905C162.25 34.5905 162.208 38.2988 162 39.9655" stroke="#D3D9E6" stroke-width="1.8"/>
<defs>
<linearGradient id="paint0_linear_6126_222840" x1="63" y1="34" x2="157" y2="34" gradientUnits="userSpaceOnUse">
<stop stop-color="#CFD4E6"/>
<stop offset="1" stop-color="#DBE0F0"/>
</linearGradient>
<linearGradient id="paint1_linear_6126_222840" x1="63" y1="34" x2="157" y2="34" gradientUnits="userSpaceOnUse">
<stop stop-color="#C0C5D8"/>
<stop offset="1" stop-color="#EBF0FB"/>
</linearGradient>
<linearGradient id="paint2_linear_6126_222840" x1="72" y1="41" x2="148" y2="41" gradientUnits="userSpaceOnUse">
<stop stop-color="#CFD4E4"/>
<stop offset="1" stop-color="#DBE1F2"/>
</linearGradient>
<linearGradient id="paint3_linear_6126_222840" x1="129.417" y1="146.864" x2="151.701" y2="143.374" gradientUnits="userSpaceOnUse">
<stop stop-color="#B6BDD2"/>
<stop offset="1" stop-color="#D7DDEC"/>
</linearGradient>
<linearGradient id="paint4_linear_6126_222840" x1="156.179" y1="113.063" x2="168.102" y2="128.7" gradientUnits="userSpaceOnUse">
<stop offset="0.0198017" stop-color="white"/>
<stop offset="1" stop-color="white" stop-opacity="0.55"/>
</linearGradient>
<linearGradient id="paint5_linear_6126_222840" x1="117.257" y1="58.4118" x2="133.273" y2="65.8879" gradientUnits="userSpaceOnUse">
<stop stop-color="#BBC0D5"/>
<stop offset="1" stop-color="#CDD3E4"/>
</linearGradient>
<linearGradient id="paint6_linear_6126_222840" x1="114.914" y1="83.4118" x2="132.114" y2="92.4445" gradientUnits="userSpaceOnUse">
<stop stop-color="#BBC0D5"/>
<stop offset="1" stop-color="#CDD3E4"/>
</linearGradient>
<linearGradient id="paint7_linear_6126_222840" x1="114.914" y1="108.412" x2="132.114" y2="117.445" gradientUnits="userSpaceOnUse">
<stop stop-color="#BBC0D5"/>
<stop offset="1" stop-color="#CDD3E4"/>
</linearGradient>
<linearGradient id="paint8_linear_6126_222840" x1="111.457" y1="66.4118" x2="121.721" y2="69.1069" gradientUnits="userSpaceOnUse">
<stop stop-color="#BBC0D5"/>
<stop offset="1" stop-color="#CDD3E4"/>
</linearGradient>
<linearGradient id="paint9_linear_6126_222840" x1="108.7" y1="91.4118" x2="120.402" y2="94.9967" gradientUnits="userSpaceOnUse">
<stop stop-color="#BBC0D5"/>
<stop offset="1" stop-color="#CDD3E4"/>
</linearGradient>
<linearGradient id="paint10_linear_6126_222840" x1="108.7" y1="116.412" x2="120.402" y2="119.997" gradientUnits="userSpaceOnUse">
<stop stop-color="#BBC0D5"/>
<stop offset="1" stop-color="#CDD3E4"/>
</linearGradient>
<linearGradient id="paint11_linear_6126_222840" x1="156.181" y1="116.882" x2="151.89" y2="139.595" gradientUnits="userSpaceOnUse">
<stop offset="0.0198017" stop-color="white"/>
<stop offset="1" stop-color="white" stop-opacity="0.55"/>
</linearGradient>
<linearGradient id="paint12_linear_6126_222840" x1="91.5" y1="30.25" x2="128.5" y2="30.25" gradientUnits="userSpaceOnUse">
<stop stop-color="#CBD1E7"/>
<stop offset="1" stop-color="#DDE3F1"/>
</linearGradient>
<linearGradient id="paint13_linear_6126_222840" x1="91.5" y1="30.25" x2="128.5" y2="30.25" gradientUnits="userSpaceOnUse">
<stop stop-color="#BEC2D0"/>
<stop offset="1" stop-color="#DBE0F1"/>
</linearGradient>
<linearGradient id="paint14_linear_6126_222840" x1="106.906" y1="32.4814" x2="106.906" y2="45.3703" gradientUnits="userSpaceOnUse">
<stop stop-color="#868FAE" stop-opacity="0"/>
<stop offset="1" stop-color="#61677C"/>
</linearGradient>
</defs>
</svg>

<svg width="220" height="160" viewBox="0 0 220 160" fill="none" xmlns="http://www.w3.org/2000/svg"><rect x="63" y="34" width="94" height="110" rx="12" fill="url(#paint0_linear_6126_222840)"/><mask id="mask0_6126_222840" style="mask-type:alpha" maskUnits="userSpaceOnUse" x="63" y="34" width="94" height="110"><rect x="63" y="34" width="94" height="110" rx="12" fill="url(#paint1_linear_6126_222840)"/></mask><g mask="url(#mask0_6126_222840)"><path fill="url(#paint2_linear_6126_222840)" stroke="#fff" stroke-width=".917" d="M72.458 41.458H147.541V135.541H72.458z"/><path opacity=".8" d="M154 155c-16.569 0-30-13.431-30-30 0-16.569 13.431-30 30-30 16.569 0 30 13.431 30 30 0 16.569-13.431 30-30 30z" fill="url(#paint3_linear_6126_222840)"/><path d="M156.667 110.525v12.521c0 .29.235.525.525.525h10.283c.29 0 .525.235.525.525v4.379c0 .29-.235.525-.525.525h-15.95a.525.525 0 0 1-.525-.525v-17.95c0-.29.235-.525.525-.525h4.617c.29 0 .525.235.525.525z" fill="url(#paint4_linear_6126_222840)"/></g><path d="m77.33 66.28 1.569-11.78a.136.136 0 0 1 .254-.048l6.27 11.138a.136.136 0 0 0 .254-.046l1.703-11.127M100.06 62.401c-.282 2.777-2.693 4.747-5.32 4.48-2.628-.268-4.592-2.684-4.31-5.461.284-2.777 2.694-4.747 5.322-4.48 2.627.268 4.591 2.684 4.308 5.461z" stroke="#BBC1D5" stroke-width="2.727"/><rect opacity=".7" x="82" y="82" width="12" height="12" rx="3" stroke="#BBC1D5" stroke-width="3"/><rect opacity=".5" x="82" y="107" width="12" height="12" rx="3" stroke="#BBC1D5" stroke-width="3"/><rect x="104" y="57" width="32" height="4" rx=".5" fill="url(#paint5_linear_6126_222840)"/><rect opacity=".7" x="100" y="82" width="36" height="4" rx=".5" fill="url(#paint6_linear_6126_222840)"/><rect opacity=".5" x="100" y="107" width="36" height="4" rx=".5" fill="url(#paint7_linear_6126_222840)"/><rect x="104" y="65" width="18" height="4" rx=".5" fill="url(#paint8_linear_6126_222840)"/><rect opacity=".7" x="100" y="90" width="21" height="4" rx=".5" fill="url(#paint9_linear_6126_222840)"/><rect opacity=".5" x="100" y="115" width="21" height="4" rx=".5" fill="url(#paint10_linear_6126_222840)"/><path d="M154 148c-12.703 0-23-10.297-23-23s10.297-23 23-23 23 10.297 23 23-10.297 23-23 23z" fill="#CC1800"/><path fill-rule="evenodd" clip-rule="evenodd" d="M159.728 116.235a.499.499 0 0 1 .707 0l2.404 2.404a.5.5 0 0 1 0 .707l-5.162 5.162a.5.5 0 0 0 0 .707l5.303 5.303a.499.499 0 0 1 0 .707l-2.404 2.404a.499.499 0 0 1-.707 0l-5.303-5.303a.5.5 0 0 0-.707 0l-5.516 5.515a.499.499 0 0 1-.707 0l-2.404-2.404a.5.5 0 0 1 0-.707l5.515-5.515a.499.499 0 0 0 0-.707l-5.374-5.374a.5.5 0 0 1 0-.707l2.404-2.405a.502.502 0 0 1 .708 0l5.374 5.374a.499.499 0 0 0 .707 0l5.162-5.161z" fill="url(#paint11_linear_6126_222840)"/><path d="M115.724 34.95h-11.448a8.486 8.486 0 0 0 3.824-4.154c.716-1.671 3.084-1.671 3.8 0a8.486 8.486 0 0 0 3.824 4.154z" stroke="url(#paint12_linear_6126_222840)" stroke-width="12.1"/><mask id="mask1_6126_222840" style="mask-type:alpha" maskUnits="userSpaceOnUse" x="91" y="23" width="38" height="18"><path d="M115.724 34.95h-11.448a8.486 8.486 0 0 0 3.824-4.154c.716-1.671 3.084-1.671 3.8 0a8.486 8.486 0 0 0 3.824 4.154z" stroke="url(#paint13_linear_6126_222840)" stroke-width="12.1"/></mask><g mask="url(#mask1_6126_222840)"><path opacity=".4" fill="url(#paint14_linear_6126_222840)" d="M75.563 32.481H138.251V45.370000000000005H75.563z"/></g><circle cx="110.001" cy="28.2" r="2.2" fill="#757B94"/><path d="M161.375 21.25c.417 1.667.75 5.375-1.25 6.875s-4.583 1.042-5.625.625M167.081 25c-.625 0-3.052 2.24-2.5 5s3.75 3.75 5.625 4.375M154.5 34.34c1.458-1.041 4.75-2.75 6.25-1.25s1.458 5.209 1.25 6.875" stroke="#D3D9E6" stroke-width="1.8"/><defs><linearGradient id="paint0_linear_6126_222840" x1="63" y1="34" x2="157" y2="34" gradientUnits="userSpaceOnUse"><stop stop-color="#CFD4E6"/><stop offset="1" stop-color="#DBE0F0"/></linearGradient><linearGradient id="paint1_linear_6126_222840" x1="63" y1="34" x2="157" y2="34" gradientUnits="userSpaceOnUse"><stop stop-color="#C0C5D8"/><stop offset="1" stop-color="#EBF0FB"/></linearGradient><linearGradient id="paint2_linear_6126_222840" x1="72" y1="41" x2="148" y2="41" gradientUnits="userSpaceOnUse"><stop stop-color="#CFD4E4"/><stop offset="1" stop-color="#DBE1F2"/></linearGradient><linearGradient id="paint3_linear_6126_222840" x1="129.417" y1="146.864" x2="151.701" y2="143.374" gradientUnits="userSpaceOnUse"><stop stop-color="#B6BDD2"/><stop offset="1" stop-color="#D7DDEC"/></linearGradient><linearGradient id="paint4_linear_6126_222840" x1="156.179" y1="113.063" x2="168.102" y2="128.7" gradientUnits="userSpaceOnUse"><stop offset=".02" stop-color="#fff"/><stop offset="1" stop-color="#fff" stop-opacity=".55"/></linearGradient><linearGradient id="paint5_linear_6126_222840" x1="117.257" y1="58.412" x2="133.273" y2="65.888" gradientUnits="userSpaceOnUse"><stop stop-color="#BBC0D5"/><stop offset="1" stop-color="#CDD3E4"/></linearGradient><linearGradient id="paint6_linear_6126_222840" x1="114.914" y1="83.412" x2="132.114" y2="92.445" gradientUnits="userSpaceOnUse"><stop stop-color="#BBC0D5"/><stop offset="1" stop-color="#CDD3E4"/></linearGradient><linearGradient id="paint7_linear_6126_222840" x1="114.914" y1="108.412" x2="132.114" y2="117.445" gradientUnits="userSpaceOnUse"><stop stop-color="#BBC0D5"/><stop offset="1" stop-color="#CDD3E4"/></linearGradient><linearGradient id="paint8_linear_6126_222840" x1="111.457" y1="66.412" x2="121.721" y2="69.107" gradientUnits="userSpaceOnUse"><stop stop-color="#BBC0D5"/><stop offset="1" stop-color="#CDD3E4"/></linearGradient><linearGradient id="paint9_linear_6126_222840" x1="108.7" y1="91.412" x2="120.402" y2="94.997" gradientUnits="userSpaceOnUse"><stop stop-color="#BBC0D5"/><stop offset="1" stop-color="#CDD3E4"/></linearGradient><linearGradient id="paint10_linear_6126_222840" x1="108.7" y1="116.412" x2="120.402" y2="119.997" gradientUnits="userSpaceOnUse"><stop stop-color="#BBC0D5"/><stop offset="1" stop-color="#CDD3E4"/></linearGradient><linearGradient id="paint11_linear_6126_222840" x1="156.181" y1="116.882" x2="151.89" y2="139.595" gradientUnits="userSpaceOnUse"><stop offset=".02" stop-color="#fff"/><stop offset="1" stop-color="#fff" stop-opacity=".55"/></linearGradient><linearGradient id="paint12_linear_6126_222840" x1="91.5" y1="30.25" x2="128.5" y2="30.25" gradientUnits="userSpaceOnUse"><stop stop-color="#CBD1E7"/><stop offset="1" stop-color="#DDE3F1"/></linearGradient><linearGradient id="paint13_linear_6126_222840" x1="91.5" y1="30.25" x2="128.5" y2="30.25" gradientUnits="userSpaceOnUse"><stop stop-color="#BEC2D0"/><stop offset="1" stop-color="#DBE0F1"/></linearGradient><linearGradient id="paint14_linear_6126_222840" x1="106.906" y1="32.481" x2="106.906" y2="45.37" gradientUnits="userSpaceOnUse"><stop stop-color="#868FAE" stop-opacity="0"/><stop offset="1" stop-color="#61677C"/></linearGradient></defs></svg>
